src/logo.svg

<?xml version="1.0" encoding="UTF-8" standalone="no"?>
<svg width="341px" height="96px" viewBox="0 0 341 96" version="1.1" xmlns="http://www.w3.org/2000/svg" xmlns:xlink="http://www.w3.org/1999/xlink">
    <!-- Generator: Sketch 41.1 (35376) - http://www.bohemiancoding.com/sketch -->
    <title>Logo</title>
    <desc>Created with Sketch.</desc>
    <defs>
        <rect id="path-1" x="0" y="3.5" width="327" height="81.5" rx="40.75"></rect>
        <mask id="mask-2" maskContentUnits="userSpaceOnUse" maskUnits="objectBoundingBox" x="0" y="0" width="327" height="81.5" fill="white">
            <use xlink:href="#path-1"></use>
        </mask>
        <mask id="mask-3" maskContentUnits="userSpaceOnUse" maskUnits="objectBoundingBox" x="-7" y="-7" width="341" height="95.5">
            <rect x="-7" y="-3.5" width="341" height="95.5" fill="white"></rect>
            <use xlink:href="#path-1" fill="black"></use>
        </mask>
    </defs>
    <g id="Page-1" stroke="none" stroke-width="1" fill="none" fill-rule="evenodd">
        <g id="Logo" transform="translate(7.000000, 4.000000)">
            <g id="Rectangle" stroke-width="14">
                <use stroke="#DE4D5F" mask="url(#mask-2)" fill="#282028" fill-rule="evenodd" xlink:href="#path-1"></use>
                <use stroke="#282028" mask="url(#mask-3)" xlink:href="#path-1"></use>
            </g>
            <g id="SNEX" transform="translate(42.000000, 0.068284)">
                <path d="M140.384493,37.45 L187.5,37.45 L187.5,51.2 L152.774056,51.2 L152.679945,51.3102885 L136.335568,51.3102885 L134.485262,57.4673955 L166.043271,57.4673955 C165.974741,57.6042208 165.837682,57.8949702 165.632092,58.3396524 C165.426501,58.7843345 165.203781,59.2461129 164.963925,59.7250014 L164.295759,61.0590413 C164.090168,61.4695171 163.95311,61.7089578 163.88458,61.7773704 C163.404868,62.5983221 162.736709,63.5560848 161.880081,64.650687 C161.023453,65.7452893 160.18397,66.7885664 159.361608,67.7805498 C158.539245,68.7725331 157.819689,69.6105754 157.202917,70.2947018 C156.586145,70.9788282 156.243499,71.3208863 156.174968,71.3208863 L114.748657,71.3208863 L130.681853,16.9331078 L177.556291,16.9331078 C177.546785,16.9552498 177.537151,16.9775472 177.527389,17 L191,17 L191,30.75 L167.890487,30.75 C167.816877,30.774399 167.749378,30.7865985 167.687988,30.7865985 L142.297668,30.7865985 L140.384493,37.45 Z M39.1434758,51.0109847 L20.8529328,50.8998147 C19.2082075,50.8998147 17.7176975,50.4038305 16.3813582,49.4118472 C15.0450189,48.4198639 13.9142872,47.154249 12.9891292,45.6149646 C12.0639712,44.0756801 11.3444147,42.3824926 10.830438,40.5353513 C10.3164614,38.6882099 10.0594769,36.8753021 10.0594769,35.0965734 C10.0594769,33.45467 10.4363874,31.5904535 11.1902199,29.5038679 C11.9440523,27.4172823 12.9377256,25.4333455 14.1712696,23.5519978 C15.4048136,21.6706501 16.7753975,20.097183 18.2830623,18.8315491 C19.7907272,17.5659152 21.3326341,16.9331078 22.9088292,16.9331078 L64.849115,16.9331078 L60.2021365,30.7010832 L28.4356822,31.0573972 L25.5802706,37.8273644 L43.8789721,37.5594162 C45.5922276,37.5594162 47.0827376,38.0896063 48.3505467,39.1500022 C49.6183558,40.2103982 50.663426,41.5444247 51.4857886,43.1521218 C52.3081513,44.7598188 52.9077817,46.4872121 53.2846979,48.3343535 C53.6616142,50.1814948 53.8500694,51.8917852 53.8500694,53.465276 L53.8500694,54.0809867 C53.8500694,55.8597154 53.5245558,57.7581377 52.8735187,59.7763107 C52.2224816,61.7944836 51.3487343,63.6587001 50.2522508,65.3690162 C49.1557673,67.0793322 47.9222418,68.4988733 46.5516373,69.6276819 C45.1810329,70.7564904 43.7419199,71.3208863 42.234255,71.3208863 L0.293969151,71.3208863 L8.82593906,57.570014 L36.7861296,57.570014 L39.1434758,51.0109847 Z M57.3157233,71.3208863 L73.1461253,71.3208863 L81.9864796,40.7405882 L86.6122465,71.3208863 L106.554441,71.3208863 L122.384843,16.9331078 L106.760031,16.9331078 L97.8168816,47.5134059 L93.08832,16.9331078 L73.2489201,16.9331078 L57.3157233,71.3208863 Z" id="Letters" fill="#DE4D5F"></path>
                <path d="M173.347323,88.25 L192.510645,67.1233369 L199.509423,88.25 L227.837812,88.25 L213.50698,44.0004537 L248.784835,5.26139284 C251.388949,2.40178275 250.364437,0.0836107481 246.506901,0.0836107481 L224.838336,0.0836107481 L206.008289,20.8775705 L199.342786,0.0836107481 L170.847759,0.0836107481 L185.011953,44.0004537 L144.852296,88.25 L173.347323,88.25 Z" id="X" stroke="#282028" stroke-width="6.5" fill="#FFFFFF"></path>
            </g>
        </g>
    </g>
</svg>

<?xml version="1.0" encoding="UTF-8"?>
<svg version="1.1" viewBox="0 0 341 96" xmlns="http://www.w3.org/2000/svg" xmlns:xlink="http://www.w3.org/1999/xlink">
<defs>
<rect id="a" y="3.5" width="327" height="81.5" rx="40.75"/>
<mask id="c" x="0" y="0" width="327" height="81.5" fill="white">
<use xlink:href="#a"/>
</mask>
<mask id="b" x="-7" y="-7" width="341" height="95.5">
<rect x="-7" y="-3.5" width="341" height="95.5" fill="#fff"/>
<use fill="black" xlink:href="#a"/>
</mask>
</defs>
<g fill="none" fill-rule="evenodd">
<g transform="translate(7 4)">
<g stroke-width="14">
<use fill="#282028" fill-rule="evenodd" mask="url(#c)" stroke="#DE4D5F" xlink:href="#a"/>
<use mask="url(#b)" stroke="#282028" xlink:href="#a"/>
</g>
<g transform="translate(42 .068284)">
<path d="m140.38 37.45h47.116v13.75h-34.726l-0.094111 0.11029h-16.344l-1.8503 6.1571h31.558c-0.06853 0.13683-0.20559 0.42757-0.41118 0.87226-0.20559 0.44468-0.42831 0.90646-0.66817 1.3853l-0.66817 1.334c-0.20559 0.41048-0.34265 0.64992-0.41118 0.71833-0.47971 0.82095-1.1479 1.7787-2.0045 2.8733-0.85663 1.0946-1.6961 2.1379-2.5185 3.1299-0.82236 0.99198-1.5419 1.83-2.1587 2.5142s-0.95942 1.0262-1.0279 1.0262h-41.426l15.933-54.388h46.874c-0.009506 0.022142-0.01914 0.044439-0.028902 0.066892h13.473v13.75h-23.11c-0.07361 0.024399-0.14111 0.036598-0.2025 0.036598h-25.39l-1.9132 6.6634zm-101.24 13.561l-18.291-0.11117c-1.6447 0-3.1352-0.49598-4.4716-1.488s-2.4671-2.2576-3.3922-3.7969c-0.92516-1.5393-1.6447-3.2325-2.1587-5.0796-0.51398-1.8471-0.77096-3.66-0.77096-5.4388 0-1.6419 0.37691-3.5061 1.1307-5.5927 0.75383-2.0866 1.7475-4.0705 2.981-5.9519s2.6041-3.4548 4.1118-4.7204c1.5077-1.2656 3.0496-1.8984 4.6258-1.8984h41.94l-4.647 13.768-31.766 0.35631-2.8554 6.77 18.299-0.26795c1.7133 0 3.2038 0.53019 4.4716 1.5906 1.2678 1.0604 2.3129 2.3944 3.1352 4.0021 0.82236 1.6077 1.422 3.3351 1.7989 5.1822 0.37692 1.8471 0.56537 3.5574 0.56537 5.1309v0.61571c0 1.7787-0.32551 3.6772-0.97655 5.6953-0.65104 2.0182-1.5248 3.8824-2.6213 5.5927-1.0965 1.7103-2.33 3.1299-3.7006 4.2587-1.3706 1.1288-2.8097 1.6932-4.3174 1.6932h-41.94l8.532-13.751h27.96l2.3573-6.559zm18.172 20.31h15.83l8.8404-30.58 4.6258 30.58h19.942l15.83-54.388h-15.625l-8.9431 30.58-4.7286-30.58h-19.839l-15.933 54.388z" fill="#DE4D5F"/>
<path d="m173.35 88.25l19.163-21.127 6.9988 21.127h28.328l-14.331-44.25 35.278-38.739c2.6041-2.8596 1.5796-5.1778-2.2779-5.1778h-21.669l-18.83 20.794-6.6655-20.794h-28.495l14.164 43.917-40.16 44.25h28.495z" fill="#fff" stroke="#282028" stroke-width="6.5"/>
</g>
</g>
</g>
</svg>
